X:45
T:Dance in Peggy’s Law[?]2voices. RH.045
T:Peggy’s Law, Dance In. RH.045
R:Jig
S:Rev.R.Harrison’s MS,c1815,Cumbria
O:England
A:Temple Sowerby,Cumbria
Z:vmp.Simon Wilson. Review PJH, 2008.
M:6/8
L:1/8
Q:3/8=120
K:D
[V:1]|:”^Allegro”f3 def|g3 gag|f2f ede|d3 A2z|
[V:2]|:d3 A3|e3 A3|d2d cBc|d2z z3|
%
[V:1] f3 def|g3 gag|f2f ede|d3- ” Fine”d3:|
[V:2] d3 A3|e3 A3|d2d cBc|d3- ” Fine”d3:|
%
[V:1]|:efg efg|a3 a2z|efg efg|f3 f2z|
[V:2]|:c3 A3|def def|c3 A3|def def|
%
[V:1] efg efg|a3 a2z|efg efg|” DC”z6|]
[V:2] c3 A3|def def|c3 A3|” DC”z6|]

